X: 1031
T: A Theater Jigg.
%R: jig
B: Henry Playford "Apollo's Banquet", London 1687 (5th Edition)
F: https://archive.org/details/apollosbanquetco01rugg
Z: 2017 John Chambers <jc:trillian.mit.edu>
M: 6/4
L: 1/4
K: B
% - - - - - - - - - -
f |\
d>cB cAF | B3- B2f | d>cB cAF | e3- e2b |\
a>bg f2g | e>fd c2B | A2f G=e2 | f3- f2 :|
|: c |\
A>Bc G2F | d>ef c2B | gab fga | e3 d2a/g/ |\
^fdg =e2c | fde c2d/c/ | BGc AF>d | c3 B2 |]
% - - - - - - - - - -

%%sep 1 1 500
%%sep 1 1 500

